rospo-icon-theme-classic-common/48x48/apps/fiji.svg

<svg height="48" width="48" xmlns="http://www.w3.org/2000/svg"><rect height="39" opacity=".2" rx="1.95" transform="matrix(0 -1 -1 0 0 0)" width="39" x="-45" y="-43"/><rect fill="#4f4f4f" height="39" rx="1.95" transform="matrix(0 -1 -1 0 0 0)" width="39" x="-44" y="-43"/><path d="m9 11v5 24h5v-24h24v-5h-24zm8 8v13h5v-13zm8 0v16h-8v5h13v-5-16zm8 0v21h5v-21z" opacity=".2"/><path d="m9 10v5 24h5v-24h24v-5h-24zm8 8v13h5v-13zm8 0v16h-8v5h13v-5-16zm8 0v21h5v-21z" fill="#3693ee"/><path d="m5.9492188 5c-1.0803001 0-1.9492188.8689187-1.9492188 1.9492188v1c0-1.0803001.8689187-1.9492188 1.9492188-1.9492188h35.1015622c1.0803 0 1.949219.8689187 1.949219 1.9492188v-1c0-1.0803001-.868919-1.9492188-1.949219-1.9492188z" fill="#fff" opacity=".1"/><path d="m9 10v1h5 24v-1h-24zm8 8v1h5v-1zm8 0v1h5v-1zm8 0v1h5v-1zm-16 16v1h8v-1z" fill="#fff" opacity=".2"/></svg>

<svg xmlns="http://www.w3.org/2000/svg" width="48" height="48" version="1">
 <rect width="39" height="39" x="-45" y="-43" rx="1.95" ry="1.95" transform="matrix(0,-1,-1,0,0,0)" style="opacity:0.2"/>
 <rect style="fill:#4f4f4f" width="39" height="39" x="-44" y="-43" rx="1.95" ry="1.95" transform="matrix(0,-1,-1,0,0,0)"/>
 <path d="m 9,11 0,5 0,24 5,0 0,-24 24,0 0,-5 -24,0 z m 8,8 0,13 5,0 0,-13 z m 8,0 0,16 -8,0 0,5 13,0 0,-5 0,-16 z m 8,0 0,21 5,0 0,-21 z" style="opacity:0.2"/>
 <path style="fill:#3693ee" d="m 9,10 0,5 0,24 5,0 0,-24 24,0 0,-5 -24,0 z m 8,8 0,13 5,0 0,-13 z m 8,0 0,16 -8,0 0,5 13,0 0,-5 0,-16 z m 8,0 0,21 5,0 0,-21 z"/>
 <path style="fill:#ffffff;opacity:0.1" d="M 5.9492188 5 C 4.8689187 5 4 5.8689187 4 6.9492188 L 4 7.9492188 C 4 6.8689187 4.8689187 6 5.9492188 6 L 41.050781 6 C 42.131081 6 43 6.8689187 43 7.9492188 L 43 6.9492188 C 43 5.8689187 42.131081 5 41.050781 5 L 5.9492188 5 z"/>
 <path style="fill:#ffffff;opacity:0.2" d="M 9 10 L 9 11 L 14 11 L 38 11 L 38 10 L 14 10 L 9 10 z M 17 18 L 17 19 L 22 19 L 22 18 L 17 18 z M 25 18 L 25 19 L 30 19 L 30 18 L 25 18 z M 33 18 L 33 19 L 38 19 L 38 18 L 33 18 z M 17 34 L 17 35 L 25 35 L 25 34 L 17 34 z"/>
</svg>
